X:1
T:Vesper (Ackfield), 11.11.11.11
T:W. Ackfield
T:Vesper (Ackfield), 11.11.11.11
T:Public Domain
C:W. Ackfield
Z:Public Domain
%%score ( 1 2 ) ( 3 4 )
L:1/8
M:4/4
K:F
V:1 treble 
V:2 treble 
V:3 bass 
V:4 bass 
V:1
 [FA]3 [FA] [F^G]2 [FA]2 | [FB]4 [FA]4 | [Fc]3 [_EF] [DF]2 [_DB]2 | [CA]8 | %4
 [FA]3 [GA] [FA]2 [F=B]2 | [Ec]4 [_E^F]4 x2 | [=EG]3 [EG] [DG]2 [FG]2 | [EG]8 | %8
 [EB]2 C2 [CD]2 [CE]2 | [CG]4 [CF]4 | [D^F]2 [FA]2 [Fd]2 [Fc]2 | [GB]8 | [EB]2 [CE]2 [CF]2 [EG]2 | %13
 [FA]4 [_Ec]4 | [DB]3 D [CE]2 [EG]2 | F8 |] %16
V:2
 x8 | x8 | x8 | x8 | x8 | x10 | x8 | x8 | x2 C2 x4 | x8 | x8 | x8 | x8 | x8 | x3 D x4 | F8 |] %16
V:3
 [F,C]3 [F,C] [F,=B,]2 [F,C]2 | [F,D]4 [F,C]4 | [F,A,]3 [F,A,] [F,B,]2 F,2 | F,8 | %4
 [F,C]3 [E,^C] [D,D]2 [G,D]2 | C4 z2 _A,2 x2 | [G,C]3 [G,C] [G,C]2 [G,,=B,]2 | [C,C]8 | %8
 [C,C]2 [C,C]2 [C,=B,]2 [C,_B,]2 | [F,B,]4 [F,A,]4 | [D,A,]2 [D,D]2 [D,A,]2 [D,D]2 | [G,D]8 | %12
 C2 [B,C]2 [A,C]2 [G,C]2 | [F,C]4 [^F,A,]4 | [G,B,]3 [B,,B,] [C,B,]2 [C,B,]2 | [F,,A,]8 |] %16
V:4
 x8 | x8 | x6 F,2 | F,8 | x8 | _A,6 C4 | x8 | x8 | x8 | x8 | x8 | x8 | C2 x6 | x8 | x8 | x8 |] %16

